src/assets/outline/Map1.svg

<svg width="24" height="24" viewBox="0 0 24 24"  xmlns="http://www.w3.org/2000/svg">
<path d="M20.3799 21.13C20.1799 21.13 19.9899 21.05 19.8499 20.91L13.4699 14.53C13.1799 14.24 13.1799 13.76 13.4699 13.47L21.2 5.74001C21.39 5.55001 21.6799 5.48001 21.9399 5.55001C22.1999 5.63001 22.3999 5.84001 22.4599 6.10001C22.6499 6.95001 22.7499 7.90001 22.7499 9.00001V15C22.7499 17.77 22.1699 19.64 20.9099 20.91C20.7699 21.05 20.5599 21.08 20.3799 21.13ZM15.0599 14L20.3199 19.26C20.9499 18.29 21.2499 16.91 21.2499 15V9.00001C21.2499 8.59001 21.2399 8.21001 21.2099 7.85001L15.0599 14Z" />
<path d="M6.26999 22.48C6.20999 22.48 6.16001 22.47 6.10001 22.46C2.79001 21.7 1.25 19.33 1.25 15V9C1.25 3.57 3.57 1.25 9 1.25H15C19.33 1.25 21.7 2.79001 22.46 6.10001C22.52 6.35001 22.44 6.62 22.26 6.8L6.79999 22.26C6.65999 22.4 6.46999 22.48 6.26999 22.48ZM9 2.75C4.39 2.75 2.75 4.39 2.75 9V15C2.75 18.47 3.71001 20.21 6.04001 20.9L20.89 6.05C20.21 3.72 18.46 2.75999 14.99 2.75999H9V2.75Z" />
<path d="M14.9999 22.7499H8.99989C7.89989 22.7499 6.95989 22.6599 6.09989 22.4599C5.82989 22.3999 5.61987 22.1999 5.54987 21.9399C5.46987 21.6799 5.54988 21.3999 5.73988 21.1999L13.4699 13.4699C13.7599 13.1799 14.2399 13.1799 14.5299 13.4699L20.9099 19.8499C21.0499 19.9899 21.1299 20.1799 21.1299 20.3799C21.1299 20.5799 21.0499 20.7699 20.9099 20.9099C19.6399 22.1699 17.7699 22.7499 14.9999 22.7499ZM7.84989 21.2099C8.20989 21.2399 8.58989 21.2499 8.99989 21.2499H14.9999C16.9199 21.2499 18.2899 20.9499 19.2599 20.3199L13.9999 15.0599L7.84989 21.2099Z" />
<path d="M9.11994 13.31C8.48994 13.31 7.85993 13.08 7.35993 12.61C5.76993 11.1 5.12996 9.44005 5.50996 7.82005C5.88996 6.16005 7.33994 5.04004 9.11994 5.04004C10.8999 5.04004 12.35 6.16005 12.73 7.82005C13.1 9.45005 12.4599 11.1 10.8699 12.61C10.3799 13.07 9.74994 13.31 9.11994 13.31ZM6.96995 8.15004C6.64995 9.51004 7.56994 10.7301 8.39994 11.5201C8.80994 11.91 9.43994 11.91 9.83994 11.5201C10.6599 10.7401 11.5799 9.52004 11.2699 8.15004C10.9999 6.96004 9.93994 6.53004 9.11994 6.53004C8.29994 6.53004 7.24995 6.96004 6.96995 8.15004Z" />
<path d="M9.1499 9.49023C8.5999 9.49023 8.1499 9.04023 8.1499 8.49023C8.1499 7.94023 8.5899 7.49023 9.1499 7.49023H9.15991C9.70991 7.49023 10.1599 7.94023 10.1599 8.49023C10.1599 9.04023 9.6999 9.49023 9.1499 9.49023Z" />
</svg>

<?xml version="1.0" encoding="UTF-8"?>
<svg width="24" height="24" viewBox="0 0 24 24" xmlns="http://www.w3.org/2000/svg">
 <path d="m20.38 21.13c-0.2 0-0.39-0.08-0.53-0.22l-6.38-6.38c-0.29-0.29-0.29-0.77 0-1.06l7.7301-7.73c0.19-0.19 0.4799-0.26 0.7399-0.19 0.26 0.08 0.46 0.29 0.52 0.55 0.19 0.85 0.29 1.8 0.29 2.9v6c0 2.77-0.58 4.64-1.84 5.91-0.14 0.14-0.35 0.17-0.53 0.22zm-5.32-7.13 5.26 5.26c0.63-0.97 0.93-2.35 0.93-4.26v-6c0-0.41-0.01-0.79-0.04-1.15l-6.15 6.15z"/>
 <path d="m6.27 22.48c-0.06 0-0.10998-0.01-0.16998-0.02-3.31-0.76-4.85-3.13-4.85-7.46v-6c0-5.43 2.32-7.75 7.75-7.75h6c4.33 0 6.7 1.54 7.46 4.85 0.06 0.25-0.02 0.51999-0.2 0.69999l-15.46 15.46c-0.14 0.14-0.33 0.22-0.53 0.22zm2.73-19.73c-4.61 0-6.25 1.64-6.25 6.25v6c0 3.47 0.96001 5.21 3.29 5.9l14.85-14.85c-0.68-2.33-2.43-3.29-5.9-3.29h-5.99v-0.00999z"/>
 <path d="m15 22.75h-6c-1.1 0-2.04-0.09-2.9-0.29-0.27-0.06-0.48002-0.26-0.55002-0.52-0.08-0.26 1e-5 -0.54 0.19001-0.74l7.73-7.73c0.29-0.29 0.77-0.29 1.06 0l6.38 6.38c0.14 0.14 0.22 0.33 0.22 0.53s-0.08 0.39-0.22 0.53c-1.27 1.26-3.14 1.84-5.91 1.84zm-7.15-1.54c0.36 0.03 0.74 0.04 1.15 0.04h6c1.92 0 3.29-0.3 4.26-0.93l-5.26-5.26-6.15 6.15z"/>
 <path d="m9.1199 13.31c-0.63 0-1.26-0.23-1.76-0.7-1.59-1.51-2.23-3.17-1.85-4.79 0.38-1.66 1.83-2.78 3.61-2.78 1.78 0 3.2301 1.12 3.6101 2.78 0.37 1.63-0.2701 3.28-1.8601 4.79-0.49 0.46-1.12 0.7-1.75 0.7zm-2.15-5.16c-0.32 1.36 0.59999 2.5801 1.43 3.3701 0.41 0.3899 1.04 0.3899 1.44 0 0.81996-0.78 1.74-2.0001 1.43-3.3701-0.27-1.19-1.33-1.62-2.15-1.62s-1.87 0.43-2.15 1.62z"/>
 <path d="m9.1499 9.4902c-0.55 0-1-0.45-1-1s0.44-1 1-1h0.01001c0.55 0 0.99999 0.45 0.99999 1s-0.46 1-1.01 1z"/>
</svg>
